svg/fluentui-system-icons/ic_fluent_code_cs_16_filled.svg

<svg width="16" height="16" viewBox="0 0 16 16" fill="none" xmlns="http://www.w3.org/2000/svg">
<path d="M3.5 5.25C3.16848 5.25 2.85054 5.3817 2.61612 5.61612C2.3817 5.85054 2.25 6.16848 2.25 6.5V9.5C2.25 9.83152 2.3817 10.1495 2.61612 10.3839C2.85054 10.6183 3.16848 10.75 3.5 10.75C3.83152 10.75 4.14946 10.6183 4.38388 10.3839C4.6183 10.1495 4.75 9.83152 4.75 9.5C4.75 9.08579 5.08579 8.75 5.5 8.75C5.91421 8.75 6.25 9.08579 6.25 9.5C6.25 10.2293 5.96027 10.9288 5.44454 11.4445C4.92882 11.9603 4.22935 12.25 3.5 12.25C2.77065 12.25 2.07118 11.9603 1.55546 11.4445C1.03973 10.9288 0.75 10.2293 0.75 9.5V6.5C0.75 5.77065 1.03973 5.07118 1.55546 4.55546C2.07118 4.03973 2.77065 3.75 3.5 3.75C4.22935 3.75 4.92882 4.03973 5.44454 4.55546C5.96027 5.07118 6.25 5.77065 6.25 6.5C6.25 6.91421 5.91421 7.25 5.5 7.25C5.08579 7.25 4.75 6.91421 4.75 6.5C4.75 6.16848 4.6183 5.85054 4.38388 5.61612C4.14946 5.3817 3.83152 5.25 3.5 5.25ZM9.5 4.25C9.91421 4.25 10.25 4.58579 10.25 5V5.75H11.75V5C11.75 4.58579 12.0858 4.25 12.5 4.25C12.9142 4.25 13.25 4.58579 13.25 5V5.75H14.25C14.6642 5.75 15 6.08579 15 6.5C15 6.91421 14.6642 7.25 14.25 7.25H13.25V8.75H14.25C14.6642 8.75 15 9.08579 15 9.5C15 9.91421 14.6642 10.25 14.25 10.25H13.25V11C13.25 11.4142 12.9142 11.75 12.5 11.75C12.0858 11.75 11.75 11.4142 11.75 11V10.25H10.25V11C10.25 11.4142 9.91421 11.75 9.5 11.75C9.08579 11.75 8.75 11.4142 8.75 11V10.25H8C7.58579 10.25 7.25 9.91421 7.25 9.5C7.25 9.08579 7.58579 8.75 8 8.75H8.75V7.25H8C7.58579 7.25 7.25 6.91421 7.25 6.5C7.25 6.08579 7.58579 5.75 8 5.75H8.75V5C8.75 4.58579 9.08579 4.25 9.5 4.25ZM10.25 7.25V8.75H11.75V7.25H10.25Z" fill="#212121"/>
</svg>

<svg xmlns="http://www.w3.org/2000/svg" width="16" height="16"><path d="M3.5 5.25A1.25 1.25 0 0 0 2.25 6.5v3a1.25 1.25 0 1 0 2.5 0 .75.75 0 0 1 1.5 0 2.75 2.75 0 0 1-5.5 0v-3a2.75 2.75 0 1 1 5.5 0 .75.75 0 0 1-1.5 0A1.25 1.25 0 0 0 3.5 5.25Zm6-1a.75.75 0 0 1 .75.75v.75h1.5V5a.75.75 0 0 1 1.5 0v.75h1a.75.75 0 0 1 0 1.5h-1v1.5h1a.75.75 0 0 1 0 1.5h-1V11a.75.75 0 0 1-1.5 0v-.75h-1.5V11a.75.75 0 0 1-1.5 0v-.75H8a.75.75 0 0 1 0-1.5h.75v-1.5H8a.75.75 0 0 1 0-1.5h.75V5a.75.75 0 0 1 .75-.75Zm.75 3v1.5h1.5v-1.5h-1.5Z"/></svg>
